Sources/FrostedUI/Resources/Icons.xcassets/waveform32.imageset/waveform-32.svg

<svg width="32" height="32" viewBox="0 0 32 32" fill="none" xmlns="http://www.w3.org/2000/svg" data-fui-icon="true">
  <path
    d="M10 6.25C10.4142 6.25 10.75 6.58579 10.75 7V24.5C10.75 24.9142 10.4142 25.25 10 25.25C9.58579 25.25 9.25 24.9142 9.25 24.5V7C9.25 6.58579 9.58579 6.25 10 6.25ZM13 8C13.4142 8 13.75 8.33579 13.75 8.75V22.75C13.75 23.1642 13.4142 23.5 13 23.5C12.5858 23.5 12.25 23.1642 12.25 22.75V8.75C12.25 8.33579 12.5858 8 13 8ZM7 11C7.41421 11 7.75 11.3358 7.75 11.75V19.75C7.75 20.1642 7.41421 20.5 7 20.5C6.58579 20.5 6.25 20.1642 6.25 19.75V11.75C6.25 11.3358 6.58579 11 7 11ZM22 11C22.4142 11 22.75 11.3358 22.75 11.75V19.75C22.75 20.1642 22.4142 20.5 22 20.5C21.5858 20.5 21.25 20.1642 21.25 19.75V11.75C21.25 11.3358 21.5858 11 22 11ZM19 12C19.4142 12 19.75 12.3358 19.75 12.75V18.75C19.75 19.1642 19.4142 19.5 19 19.5C18.5858 19.5 18.25 19.1642 18.25 18.75V12.75C18.25 12.3358 18.5858 12 19 12ZM16 13C16.4142 13 16.75 13.3358 16.75 13.75V17.75C16.75 18.1642 16.4142 18.5 16 18.5C15.5858 18.5 15.25 18.1642 15.25 17.75V13.75C15.25 13.3358 15.5858 13 16 13ZM25 13C25.4142 13 25.75 13.3358 25.75 13.75V17.75C25.75 18.1642 25.4142 18.5 25 18.5C24.5858 18.5 24.25 18.1642 24.25 17.75V13.75C24.25 13.3358 24.5858 13 25 13ZM4 14C4.41421 14 4.75 14.3358 4.75 14.75V16.75C4.75 17.1642 4.41421 17.5 4 17.5C3.58579 17.5 3.25 17.1642 3.25 16.75V14.75C3.25 14.3358 3.58579 14 4 14ZM28 14.5C28.4142 14.5 28.75 14.8358 28.75 15.25V16.25C28.75 16.6642 28.4142 17 28 17C27.5858 17 27.25 16.6642 27.25 16.25V15.25C27.25 14.8358 27.5858 14.5 28 14.5Z"
    fill="currentColor"
  />
</svg>

<svg xmlns="http://www.w3.org/2000/svg" width="32" height="32" fill="none" data-fui-icon="true" viewBox="0 0 32 32"><path fill="currentColor" d="M10 6.25a.75.75 0 0 1 .75.75v17.5a.75.75 0 0 1-1.5 0V7a.75.75 0 0 1 .75-.75M13 8a.75.75 0 0 1 .75.75v14a.75.75 0 0 1-1.5 0v-14A.75.75 0 0 1 13 8m-6 3a.75.75 0 0 1 .75.75v8a.75.75 0 0 1-1.5 0v-8A.75.75 0 0 1 7 11m15 0a.75.75 0 0 1 .75.75v8a.75.75 0 0 1-1.5 0v-8A.75.75 0 0 1 22 11m-3 1a.75.75 0 0 1 .75.75v6a.75.75 0 0 1-1.5 0v-6A.75.75 0 0 1 19 12m-3 1a.75.75 0 0 1 .75.75v4a.75.75 0 0 1-1.5 0v-4A.75.75 0 0 1 16 13m9 0a.75.75 0 0 1 .75.75v4a.75.75 0 0 1-1.5 0v-4A.75.75 0 0 1 25 13M4 14a.75.75 0 0 1 .75.75v2a.75.75 0 0 1-1.5 0v-2A.75.75 0 0 1 4 14m24 .5a.75.75 0 0 1 .75.75v1a.75.75 0 0 1-1.5 0v-1a.75.75 0 0 1 .75-.75"/></svg>
